static/img/q-architecture.svg

<svg width="51" height="50" viewBox="0 0 51 50" fill="none" xmlns="http://www.w3.org/2000/svg">
<circle cx="25.5" cy="25" r="25" fill="#3A3CE8"/>
<path fill-rule="evenodd" clip-rule="evenodd" d="M19.6163 21.8974H16.0349V15.6923H19.6163V21.8974ZM14.5 22.0667C14.5 22.9078 15.1185 23.5897 15.8814 23.5897H19.7698C20.5327 23.5897 21.1512 22.9078 21.1512 22.0667V19.641H23.9651C24.6716 19.641 25.2442 20.2724 25.2442 21.0513V28.9487C25.2442 29.7276 24.6716 30.359 23.9651 30.359H21.1512V27.9333C21.1512 27.0922 20.5327 26.4103 19.7698 26.4103H15.8814C15.1185 26.4103 14.5 27.0922 14.5 27.9333V34.4769C14.5 35.3181 15.1185 36 15.8814 36H19.7698C20.5327 36 21.1512 35.3181 21.1512 34.4769V32.0513H23.9651C25.5193 32.0513 26.7791 30.6623 26.7791 28.9487V25.8461H29.8488V28.2718C29.8488 29.113 30.4673 29.7949 31.2302 29.7949H35.1186C35.8815 29.7949 36.5 29.113 36.5 28.2718V21.7282C36.5 20.887 35.8815 20.2051 35.1186 20.2051H31.2302C30.4673 20.2051 29.8488 20.887 29.8488 21.7282V24.1538H26.7791V21.0513C26.7791 19.3378 25.5193 17.9487 23.9651 17.9487H21.1512V15.5231C21.1512 14.6819 20.5327 14 19.7698 14H15.8814C15.1185 14 14.5 14.6819 14.5 15.5231V22.0667ZM31.3837 28.1026H34.9651V21.8974H31.3837V28.1026ZM16.0349 34.3077H19.6163V28.1026H16.0349V34.3077Z" fill="white"/>
</svg>

<svg width="51" height="50" viewBox="0 0 51 50" fill="none" xmlns="http://www.w3.org/2000/svg" class="featureSvg_src-components-HomepageFeatures-styles-module" role="test">
  <circle cx="25.5" cy="25" r="25" fill="url(#gradient)"></circle>
  <defs>
    <linearGradient id="gradient" x1="0%" y1="0%" x2="100%" y2="0%">
      <stop offset="0%" style="stop-color:rgb(204, 117, 202)"/>
      <stop offset="100%" style="stop-color:rgb(72, 55, 188)"/>
    </linearGradient>
  </defs>
  <path fill-rule="evenodd" clip-rule="evenodd" d="M19.616 21.897h-3.581v-6.205h3.581v6.205Zm-5.116.17c0 .84.618 1.523 1.381 1.523h3.889c.763 0 1.381-.682 1.381-1.523V19.64h2.814c.707 0 1.28.631 1.28 1.41v7.898c0 .779-.573 1.41-1.280 1.41h-2.814v-2.426c0-.84-.618-1.523-1.381-1.523H15.88c-.763 0-1.381.682-1.381 1.523v6.544c0 .841.618 1.523 1.381 1.523h3.889c.763 0 1.381-.682 1.381-1.523V32.05h2.814c1.554 0 2.814-1.389 2.814-3.102v-3.103h3.07v2.426c0 .841.618 1.523 1.381 1.523h3.889c.763 0 1.381-.682 1.381-1.523v-6.544c0-.841-.618-1.523-1.381-1.523H31.23c-.763 0-1.381.682-1.381 1.523v2.426h-3.07V21.05c0-1.713-1.26-3.102-2.814-3.102h-2.814v-2.426c0-.841-.618-1.523-1.381-1.523H15.88c-.763 0-1.381.682-1.381 1.523v6.544Zm16.884 6.036h3.581v-6.206h-3.581v6.206Zm-15.35 6.205h3.582v-6.205h-3.581v6.205Z" fill="#fff"></path>
</svg>
